X:1
T:Alman, CMD
T:Alman, CMD
T:Samuel Alman, 1882
T:Public Domain Courtesy of the Cyber Hymnal™
C:Samuel Alman, 1882
Z:Public Domain
Z:Courtesy of the Cyber Hymnal™
%%score ( 1 2 ) ( 3 4 )
L:1/8
Q:1/4=112
M:6/8
K:Bb
V:1 treble 
V:2 treble 
V:3 bass 
V:4 bass 
V:1
 [DF] | [DF]2 [DB] [DB]2 [DF] | [DF]2 [CE] [B,D]2 [DF] | [EG]2 [FG] [=Ec]2 [GB] | %4
 [FA]3- [FA]2 [EF] | [DF]2 [DB] [DB]2 [DF] | [DF]2 [CE] [B,D]2 [DF] | [EG]2 [Ec] [DB]2 [CA] | %8
 [DB]3- [DB]2 F | [Fc]2 [F=B] [Fc]2 F | [Fd]2 [Ec] [DB]2 F | [EG]2 [GB] [Ge]2 [EG] | %12
 [DF]3- [DF]2 [DF] | [DF]2 [DB] [DB]2 [Fd] | [Ec]2 [DB] !fermata![EG]2 [Ge] | %15
 [Fd]2 [Ec] [EG]2 [EA] | [DB]3- [DB]2 |] %17
V:2
 x | x6 | x6 | x6 | x6 | x6 | x6 | x6 | x5 F | x5 F | x5 F | x6 | x6 | x6 | x6 | x6 | x5 |] %17
V:3
 [B,,B,] | [B,,B,]2 [B,,F,] [B,,F,]2 [B,,B,] | [B,,B,]2 [A,,F,] [B,,F,]2 [B,,B,] | %3
 [E,B,]2 [D,=B,] [C,C]2 [=E,C] | [F,C]3- [F,C]2 [F,A,] | [B,,B,]2 [B,,F,] [B,,F,]2 [B,,B,] | %6
 [B,,B,]2 [A,,F,] [B,,F,]2 [B,,B,] | [E,B,]2 [E,G,] F,2 [F,,F,] | [B,,F,]3- [B,,F,]2 F, | %9
 [F,A,]2 [F,^G,] [F,A,]2 [F,A,] | [B,,B,]2 [B,,F,] [B,,F,]2 [D,B,] | %11
 [E,B,]2 [E,B,] [E,B,]2 [E,B,] | [B,,B,]3- [B,,B,]2 [B,,B,] | [B,,B,]2 [B,,F,] [B,,F,]2 [B,,B,] | %14
 [F,A,]2 [G,B,] !fermata![E,B,]2 [E,B,] | [F,B,]2 [F,C] [F,C]2 F, | [B,,F,]3- [B,,F,]2 |] %17
V:4
 x | x6 | x6 | x6 | x6 | x6 | x6 | x3 F,2 x | x5 F, | x6 | x6 | x6 | x6 | x6 | x6 | x5 F, | x5 |] %17

